src/distro-icons/ubuntu.svg

<svg width="512" height="512" fill="none" xmlns="http://www.w3.org/2000/svg">
<circle cx="256" cy="256" r="256" fill="#fff"/>
<path d="M512 256.002c0 141.379-114.618 255.996-256.005 255.996C114.611 511.998 0 397.381 0 256.002 0 114.613 114.611 0 255.995 0 397.382 0 512 114.613 512 256.002Z" fill="#F47421"/>
<path d="M325.947 134.832c16.346 9.44 37.243 3.841 46.676-12.5 9.438-16.348 3.844-37.243-12.504-46.681-16.344-9.435-37.239-3.837-46.677 12.51-9.435 16.342-3.838 37.236 12.505 46.671Zm-69.95 221.006a99.448 99.448 0 0 1-42.057-9.289l-23.748 42.558c19.837 9.822 42.17 15.372 65.805 15.372 13.746 0 27.036-1.905 39.667-5.402 2.234-13.727 10.385-26.379 23.38-33.883 12.972-7.489 27.985-8.231 40.98-3.32 25.272-24.85 41.717-58.659 44.111-96.311l-48.71-.709c-4.483 51.001-47.269 90.984-99.428 90.984Zm0-199.679c52.159 0 94.945 39.991 99.428 90.986l48.71-.711c-2.397-37.648-18.842-71.458-44.118-96.306-12.993 4.908-28.004 4.164-40.978-3.327-12.993-7.501-21.142-20.151-23.377-33.88a148.51 148.51 0 0 0-39.665-5.4c-23.635 0-45.966 5.548-65.802 15.374l23.747 42.553a99.417 99.417 0 0 1 42.055-9.289Zm-99.837 99.839c0-33.778 16.786-63.611 42.452-81.677l-24.986-41.858c-29.91 19.985-52.161 50.533-61.402 86.316 10.796 8.799 17.694 22.2 17.694 37.223 0 15.021-6.899 28.421-17.696 37.219 9.24 35.785 31.491 66.333 61.402 86.318l24.988-41.86c-25.666-18.064-42.452-47.898-42.452-81.681Zm169.792 121.165c-16.348 9.438-21.945 30.331-12.509 46.672 9.439 16.348 30.331 21.949 46.679 12.511 16.343-9.437 21.943-30.331 12.504-46.678-9.435-16.339-30.331-21.94-46.674-12.505ZM81.921 221.825c-18.88 0-34.179 15.297-34.179 34.177 0 18.875 15.299 34.173 34.179 34.173 18.873 0 34.173-15.298 34.173-34.173 0-18.88-15.3-34.177-34.173-34.177Z" fill="#fff"/>
</svg>

<svg width="512" height="512" viewBox="0 0 512 512" fill="none" xmlns="http://www.w3.org/2000/svg">
<circle cx="256" cy="256" r="256" fill="white"/>
<path d="M512 256.002C512 397.381 397.382 511.998 255.995 511.998C114.611 511.998 0 397.381 0 256.002C0 114.613 114.611 0 255.995 0C397.382 0 512 114.613 512 256.002Z" fill="#F47421"/>
<path d="M325.947 134.832C342.293 144.272 363.19 138.673 372.623 122.332C382.061 105.984 376.467 85.0892 360.119 75.6509C343.775 66.2159 322.88 71.8135 313.442 88.1614C304.007 104.503 309.604 125.397 325.947 134.832ZM255.997 355.838C240.968 355.838 226.725 352.496 213.94 346.549L190.192 389.107C210.029 398.929 232.362 404.479 255.997 404.479C269.743 404.479 283.033 402.574 295.664 399.077C297.898 385.35 306.049 372.698 319.044 365.194C332.016 357.705 347.029 356.963 360.024 361.874C385.296 337.024 401.741 303.215 404.135 265.563L355.425 264.854C350.942 315.855 308.156 355.838 255.997 355.838ZM255.997 156.159C308.156 156.159 350.942 196.15 355.425 247.145L404.135 246.434C401.738 208.786 385.293 174.976 360.017 150.128C347.024 155.036 332.013 154.292 319.039 146.801C306.046 139.3 297.897 126.65 295.662 112.921C283.033 109.427 269.743 107.521 255.997 107.521C232.362 107.521 210.031 113.069 190.195 122.895L213.942 165.448C226.725 159.5 240.968 156.159 255.997 156.159V156.159ZM156.16 255.998C156.16 222.22 172.946 192.387 198.612 174.321L173.626 132.463C143.716 152.448 121.465 182.996 112.224 218.779C123.02 227.578 129.918 240.979 129.918 256.002C129.918 271.023 123.019 284.423 112.222 293.221C121.462 329.006 143.713 359.554 173.624 379.539L198.612 337.679C172.946 319.615 156.16 289.781 156.16 255.998ZM325.952 377.163C309.604 386.601 304.007 407.494 313.443 423.835C322.882 440.183 343.774 445.784 360.122 436.346C376.465 426.909 382.065 406.015 372.626 389.668C363.191 373.329 342.295 367.728 325.952 377.163ZM81.9208 221.825C63.0408 221.825 47.7422 237.122 47.7422 256.002C47.7422 274.877 63.0408 290.175 81.9208 290.175C100.794 290.175 116.094 274.877 116.094 256.002C116.094 237.122 100.794 221.825 81.9208 221.825Z" fill="white"/>
</svg>
